X: 8
T: Goathland Square Eight
M:4/4
R:reel
L:1/8
Z:added by Alf warnock alf0@rogers.com
K:G
D2|"G"G2GB d2B2|g2d2 B2G2|"Am"c2AB c2B2|"D7"A2G2 F2D2|
"G"G2BB d2B2|g2d2 B2G2|"Am"A2AB c2ec|"D7"A2F2 "G"G2:|
D2|"G"G2gg g2gf|"C"e2ee e2ed|"Am"c2a2 a2ag|"D"f2d2 d2ef|
"Em"g2e2 "A7"e2ag|"D"f2d2 "G"d2g2|"A7"e2^c2 "D7"A2dc|"G"B2G2 G2:|
% C:\aaa\EnglishCountry\ECD02.abc
